!!!OTL: 396. Dauernde Liebe.
!!!COM: W. A. Mozart
!!!ODT: 1787
!!!ARE: Europa, Mitteleuropa, Deutschland
!!!SCT: B0396
!!!TXL: @@DE
!!!YEM: Copyright 1995, estate of Helmut Schaffrath.
**kern	**text
*ICvox	*
*Ivox	*
*clefG2	*
*M3/4	*
*k[]	*
*C:	*
=1	=1
!LO:TX:a:t=Mäßig bewegt. Polonaisen-Tempo.	!
{8.g	Als
16g	ich
8g	noch
8g	im
8g	Flü-
8g	-gel-
=2	=2
8.gL	-klei-
16ccJ	.
4g	-de*
4r}	.
=3	=3
{8.f	in
16f	die
8f	Mäd-
8f	-chen-
8f	-ſchu-
8f	-le
=4	=4
(4f	ging,
4e)	.
4r}	.
=5	=5
{8.f#	o
16f#	wie
8f#	hüpft
8f#	ich
8f#	da
8f#	vor
=6	=6
8.gL	Freu-
16aJ	.
4b	-de,
4r}	.
=7	=7
{8.cc	wenn
16a	mich
8a	Li-
8g	-na
8g	froh
8f#	em-
=8	=8
(4a	-pfing;
4g)	.
4r}	.
=9	=9
{8.b	und,
16b	wie
8b	man
8b	als
8b	Kind
8b	oft
=10	=10
(4cc	thut,
4g)	.
4r}	.
=11	=11
{8.f	ʒu
16f	mir
8f	ſprach:
8f	"Jch
8f	bin
8f	dir
=12	=12
(8.eL	gut!"
16fJ)	.
4g	.
4r}	.
=13	=13
{8.a	und,
16b	wie
8cc	man
8cc	als
8cc	Kind
8cc	oft
=14	=14
(8.ccL	thut.
16ddJ)	.
4ee	.
4r}	.
=15	=15
{8.ff	ʒu
16dd	mir
8dd	ſprach:
8cc	"Jch
8cc	bin
8b	dir
=16	=16
(4dd	gut!"
4cc)	.
4r}	.
==	==
!!!AGN: Liebes - Lied, Liebes - Lust
!!!GTL: Liebeslieder - Liebeslust
!!!ONB: ESAC (Essen Associative Code) Database: BOEHME
!!!AMT: simple triple
!!!AIN: vox
!!!EED: Helmut Schaffrath
!!!EEV: 1.0
!!@@COMMENT:"!!Flügelkleid war ein damals modiſches Kinderkleid mit ʒwei hinten herabhängenden breiten
!!Streifen von Ʒeug, welche gleichſam die Flügel bildeten.
!!Gedicht um 1790 entſtanden. Verfaſſer unbekannt. Geſungen wurde es nach der Mel. des
!!Menuetts aus Moʒart's Don Juan (1787). Eine Nachbildung gabs ſchon 1794 im Berliner
!!Muſenalmanach: "Als ich noch im Knabenkleide ſaß dem Vater auf dem Schoß". [...]"
!!@@END:
!!!URL-scan: https://archive.org/details/BoehmeVtLieder1895/page/n327/mode/2up
!!!ENC: Anna Maria Matuszewska
!!!EEV: 2024/08/07
*-	*-
